X: 1023
T: The Gallowglass
N:"Collected by Dunning"
B:O'Neill's 1023
Z:Transcribed by Dan G. Petersen, dangp@post6.tele.dk
M:6/8
L:1/8
K:Am
(A/B/) | cBA  eBd  | cAA A2(A/B/) | cBA e^fg | BGG G2(A/B/) |
         cBA  eBd  | cea e2d      | cBA ^GAB | cAA A2 :|
||   e | a^ga e=fd | cAA A2(A/B/) | cBA e^fg | BGG G2e |
         a^ga e=fd | cAA Aed      | cBA ^GAB | cAA A2  |
||   e | a^ga e=fd | cAA A2(A/B/) | cBA e^fg | BGG G2e |
         aeg  fdB  | ecA B^GE     | ABc dBe  | cAA A2 ||


